X:47
T:Saint Ligori
C:Jean Duval
M:4/4
L:1/8
K:G
c :| BEGE cEGE | BEGE cFFc | BEGE cEGE | FGAG FDDc |
BEGE cEGE | BEGE cFFc | BEGE cEdE | eedB e3c ::
eedB eedB | ABcB AFF2 | eedB eedB | Aege faa2 |
eedB ddcA | BBGE AAFD | EFGE cEdE | eedB e2e2 :|

